icons/svg/headset-dock.svg

﻿<?xml version="1.0" encoding="utf-8"?>
<!DOCTYPE svg PUBLIC "-//W3C//DTD SVG 1.1//EN" "http://www.w3.org/Graphics/SVG/1.1/DTD/svg11.dtd">
<svg xmlns="http://www.w3.org/2000/svg" xmlns:xlink="http://www.w3.org/1999/xlink" version="1.1" baseProfile="full" width="24" height="24" viewBox="0 0 24.00 24.00" enable-background="new 0 0 24.00 24.00" xml:space="preserve">
	<path fill="#000000" fill-opacity="1" stroke-width="0.2" stroke-linejoin="round" d="M 2,18L 9,18L 9,6.12602C 7.27477,6.57006 6,8.13616 6,10L 6,11L 8,11L 8,17L 6,17C 4.89543,17 4,16.1046 4,15L 4,10C 4,6.68629 6.68629,4 10,4L 11,4C 14.3137,4 17,6.68629 17,10L 17,12L 18,12L 18,9L 20,9L 20,12C 20,13.1046 19.1046,14 18,14L 17,14L 17,15C 17,16.1046 16.1046,17 15,17L 13,17L 13,11L 15,11L 15,10C 15,8.13616 13.7252,6.57006 12,6.12601L 12,18L 22,18L 22,20L 2,20L 2,18 Z "/>
</svg>

<svg xmlns="http://www.w3.org/2000/svg" version="1.1" baseProfile="full" width="24" height="24" viewBox="0 0 24.00 24.00" xml:space="preserve"><path fill="#000" fill-opacity="1" stroke-width=".2" stroke-linejoin="round" d="M2 18h7V6.126C7.275 6.57 6 8.136 6 10v1h2v6H6c-1.105 0-2-.895-2-2v-5c0-3.314 2.686-6 6-6h1c3.314 0 6 2.686 6 6v2h1V9h2v3c0 1.105-.895 2-2 2h-1v1c0 1.105-.895 2-2 2h-2v-6h2v-1c0-1.864-1.275-3.43-3-3.874V18h10v2H2v-2z"/></svg>
